!!!!SEGMENT: pl-cz--iii-979--007_kasprzykowski-ignacy--missa-es-pleni.krn
!!!cenid: 18xx:862
!!!COM: Kasprzykowski, Ignacy
!!!COM-rismid: pe30098316
!!!CDT: -1752/02/17
!!!CNT:
!!!OPR: Missa Es
!!!OTL: Pleni
!!!OMV: 007
!!!PDT:
!!!AGN: Sacred; Mass
!!!SMS-siglum: PL-CZ
!!!SMS-shelfmark: III-979
!!!SMS-shelfwork: 001-007 M
!!!SMS-variant:
!!!SMS-altvar:
!!!NIFC-rismid: 300000565
!!!URL-scan: http://repozytorium.nifc.pl/skany/pl-cz-nut--iii-979
!!!ONB-nifc: UWAGA: części Mszy: Kyrie, Gloria, Credo, Et incarnatus, Et resurrexit, Sanctus, Pleni, Benedictus, Agnus
!!!OMD: Allo
!!!key: E-
**kern	**dynam	**kern	**text	**kern	**text	**kern	**dynam
*part4	*part4	*part3	*part3	*part2	*part2	*part1	*part1
*staff4	*	*staff3	*staff3	*staff2	*staff2	*staff1	*
*I"Violino Primo in Dis	*	*I"Baſso in Dis	*	*I"Canto in Dis	*	*I"Clarinetto Primo in B	*
*I'vl 1	*	*I'B	*	*I'S	*	*I'cl 1	*
*Ivioln	*	*Ibass	*	*Isoprn	*	*Iclars	*
*ICstr	*	*ICvox	*	*ICvox	*	*ICww	*
*clefG2	*	*clefF4	*	*clefC1	*	*clefG2	*
*	*	*	*	*	*	*ITrd1c2	*
*	*	*ok[a-e-b-]	*	*ok[b-a-e-]	*	*	*
*k[b-e-a-]	*	*k[b-e-a-]	*	*k[b-e-a-]	*	*k[b-e-a-]	*
*E-:	*	*E-:	*	*E-:	*	*E-:	*
*M6/8	*	*M6/8	*	*M6/8	*	*M6/8	*
*	*	*all\right	*	*	*	*	*
=1	=1	=1	=1	=1	=1	=1	=1
!	!	!LO:TX:a:t=8	!	!LO:TX:a:t=8	!	!	!
!LO:TX:a:i:t=Allo	!LO:DY:b:t=pia&colon;	!LO:TX:a:t=Allo	!	!LO:TX:a:t=Allo	!	!LO:TX:a:t=Allo.	!
8e-/L	p	0.r	.	0.r	.	8gg\L	.
.	.	.	.	.	.	8qff#X/	.
8g/	.	.	.	.	.	8gg\	.
.	.	.	.	.	.	8qff#X/	.
8b-/J	.	.	.	.	.	8gg\J	.
!	!	!	!	!	!	!	!LO:DY:b:t=p.
8e-/L	.	.	.	.	.	8.bb-\L	p
8g/	.	.	.	.	.	.	.
.	.	.	.	.	.	16aa-\K	.
8b-/J	.	.	.	.	.	8gg\J	.
=2	=2	=2	=2	=2	=2	=2	=2
*rep	*	*	*	*	*	*	*
8e-/L	.	.	.	.	.	8.gg\L	.
8g/	.	.	.	.	.	.	.
.	.	.	.	.	.	16ff\K	.
8b-/J	.	.	.	.	.	8ee-\J	.
.	.	.	.	.	.	8qqff/	.
*Xrep	*	*	*	*	*	*	*
*rep	*	*	*	*	*	*	*
8e-/L	.	.	.	.	.	8.ee-\L	.
8g/	.	.	.	.	.	.	.
.	.	.	.	.	.	16dd\K	.
8b-/J	.	.	.	.	.	8ee-\J	.
*Xrep	*	*	*	*	*	*	*
=3	=3	=3	=3	=3	=3	=3	=3
8d/L	.	.	.	.	.	8ff\L	.
.	.	.	.	.	.	8qeeX/	.
8f/	.	.	.	.	.	8ff\	.
.	.	.	.	.	.	8qeeX/	.
8b-/J	.	.	.	.	.	8ff\J	.
!	!	!	!	!	!	!LO:TX:t=P:problem:niewyraźne źródło	!
8d/L	.	.	.	.	.	8.aa-\L	.
8f/	.	.	.	.	.	.	.
.	.	.	.	.	.	16gg\K	.
8b-/J	.	.	.	.	.	8ff\J	.
!	!	!	!	!	!	!LO:LB:g=original	!
=4	=4	=4	=4	=4	=4	=4	=4
*rep	*	*	*	*	*	*	*
8d/L	.	.	.	.	.	8.ff\L	.
8f/	.	.	.	.	.	.	.
.	.	.	.	.	.	16ee-\K	.
8b-/J	.	.	.	.	.	8dd\J	.
*Xrep	*	*	*	*	*	*	*
*rep	*	*	*	*	*	*	*
8d/L	.	.	.	.	.	8.dd\L	.
8f/	.	.	.	.	.	.	.
.	.	.	.	.	.	16cc\K	.
8b-/J	.	.	.	.	.	8b-\J	.
*Xrep	*	*	*	*	*	*	*
=5	=5	=5	=5	=5	=5	=5	=5
8e-/L	.	0.r	.	0.r	.	8gg\L	.
.	.	.	.	.	.	8qff#X/	.
8g/	.	.	.	.	.	8gg\	.
.	.	.	.	.	.	8qff#X/	.
8b-/J	.	.	.	.	.	8gg\J	.
8e-/L	.	.	.	.	.	8.bb-\L	.
8g/	.	.	.	.	.	.	.
.	.	.	.	.	.	16aa-\K	.
8b-/J	.	.	.	.	.	8gg\J	.
=6	=6	=6	=6	=6	=6	=6	=6
8f/L	.	.	.	.	.	8ff\L	.
8a-/	.	.	.	.	.	8eeX\	.
8cc/J	.	.	.	.	.	8ff\J	.
8f/L	.	.	.	.	.	8ccc\L	.
8a-/	.	.	.	.	.	8aa-\	.
8cc/J	.	.	.	.	.	8ff\J	.
=7	=7	=7	=7	=7	=7	=7	=7
8e-/L	.	.	.	.	.	16ee-X\LL	.
.	.	.	.	.	.	16ff\	.
8g/	.	.	.	.	.	16ee-\	.
.	.	.	.	.	.	16dd\J	.
8b-/J	.	.	.	.	.	8ee-\J	.
8d/L	.	.	.	.	.	8gg\L	.
8f/	.	.	.	.	.	8ff\	.
8b-/J	.	.	.	.	.	8dd\J	.
!LO:LB:g=original	!	!	!	!	!	!	!
=8	=8	=8	=8	=8	=8	=8	=8
8e-/L	.	.	.	.	.	8ee-\L	.
8g/	.	.	.	.	.	8ee-\	.
8b-/J	.	.	.	.	.	8ee-\J	.
4ee-\	.	.	.	.	.	4ee-\	.
8b-\	.	.	.	.	.	8r	.
=9	=9	=9	=9	=9	=9	=9	=9
!	!LO:DY:b:t=for.	!	!	!	!	!	!LO:DY:b:t=for.
8gg\L	f	4E-\	Ple-	4b-\	Ple-	4ee-\	f
8qff#X/	.	.	.	.	.	.	.
8gg\	.	.	.	.	.	.	.
8qff#X/	.	.	.	.	.	.	.
8gg\J	.	8E-\	-ni	8b-\	-ni	8ee-\	.
8.bb-\L	.	4.E-\	Sunt	4.b-\	Sunt	4.ee-\	.
16aa-\K	.	.	.	.	.	.	.
8gg\J	.	.	.	.	.	.	.
=10	=10	=10	=10	=10	=10	=10	=10
*	*	*	*	*	*	*tremolo	*
!	!	!LO:SIC:v:l:s=Cae-	!	!LO:SIC:v:l:s=Cae-	!	!	!
8.gg\L	.	8E-\	Ce-	8b-\	Ce-	8ee-\L	.
.	.	8E-\	-li	8b-\	-li	8ee-\	.
16ff\K	.	.	.	.	.	.	.
8ee-\J	.	8E-\	et	8b-\	et	8ee-\J	.
*	*	*	*	*	*	*Xtremolo	*
8ee-\L	.	4E-\	ter-	4b-\	ter-	4.ee-\	.
8dd\	.	.	.	.	.	.	.
8ee-\J	.	8E-\	-ra	8b-\	-ra	.	.
=11	=11	=11	=11	=11	=11	=11	=11
8ff\L	.	4BB-/	Ple-	4a-\	Ple-	4dd\	.
8qeen/	.	.	.	.	.	.	.
8ff\	.	.	.	.	.	.	.
8qeen/	.	.	.	.	.	.	.
8ff\J	.	8BB-/	-ni	8a-\	-ni	8dd\	.
!	!	!	!	!LO:TX:t=P:problem:brak źródła-urwana kartka	!	!	!
8.aa-\L	.	4.BB-/	Sunt	4.ryy	Sunt	4.dd\	.
16gg\K	.	.	.	.	.	.	.
8ff\J	.	.	.	.	.	.	.
!	!	!LO:LB:g=original	!	!LO:LB:g=original	!	!	!
=12	=12	=12	=12	=12	=12	=12	=12
!	!	!LO:SIC:v:l:s=Cae-	!	!LO:SIC:v:l:s=Cae-	!	!LO:TX:t=P:problem:niewyraźne źródło	!
8.ff\L	.	8BB-/	Ce-	8a-\	Ce-	4.ryy	.
.	.	8D/	-li	8a-\	-li	.	.
16ee-\K	.	.	.	.	.	.	.
8dd\J	.	8F/	et	8a-\	et	.	.
8.dd\L	.	4B-\	ter-	4a-\	ter-	4.dd\	.
16cc\K	.	.	.	.	.	.	.
8b-\J	.	8BB-/	-ra	8a-\	-ra	.	.
!	!	!	!	!	!	!LO:LB:g=original	!
=13	=13	=13	=13	=13	=13	=13	=13
8gg\L	.	4E-\	Ple-	4b-\	Ple-	4ee-\	.
8qff#X/	.	.	.	.	.	.	.
8gg\	.	.	.	.	.	.	.
8qff#X/	.	.	.	.	.	.	.
8gg\J	.	8G\	-ni	8b-\	-ni	8ee-\	.
*	*	*	*	*	*	*tremolo	*
8bb-\L	.	4.B-\	Sunt	4.b-\	Sunt	8ee-\L	.
8aa-\	.	.	.	.	.	8ee-\	.
8gg\J	.	.	.	.	.	8ee-\J	.
!LO:LB:g=original	!	!	!	!	!	!	!
=14	=14	=14	=14	=14	=14	=14	=14
8qqgg/	.	.	.	.	.	.	.
!	!	!LO:SIC:v:l:s=Cae-	!	!LO:SIC:v:l:s=Cae-	!	!	!
8ff\L	.	4G\	Ce-	4cc\	Ce-	4ff\	.
8een\	.	.	.	.	.	.	.
8ff\J	.	8G\	-li	8cc\	-li	8ff\	.
8ccc\L	.	8G\	et	8cc\	et	8ff\L	.
8aa-\	.	8G\	ter-	8cc\	ter-	8ff\	.
8ff\J	.	8G\	-ra	8cc\	-ra	8ff\J	.
=15	=15	=15	=15	=15	=15	=15	=15
16ee-\LL	.	4.E-\	Ple-	4.ee-\	Ple-	8gg\L	.
16ff\	.	.	.	.	.	.	.
16ee-\	.	.	.	.	.	8gg\	.
16dd\J	.	.	.	.	.	.	.
8ee-\J	.	.	.	.	.	8gg\J	.
8gg\L	.	4.BB-/	-ni	4.dd\	-ni	8ff\L	.
8ff\	.	.	.	.	.	8ff\	.
8dd\J	.	.	.	.	.	8ff\J	.
*	*	*	*	*	*	*Xtremolo	*
=16	=16	=16	=16	=16	=16	=16	=16
!	!	!	!	!LO:TX:t=P:problem:takt zapisany repetycją	!	!	!
16ee-\LL	.	4.E-\	Sunt	4.ee-\	Ple-	4ee-\	.
16b-\	.	.	.	.	.	.	.
16an\	.	.	.	.	.	.	.
16b-\	.	.	.	.	.	.	.
16cc\	.	.	.	.	.	8ee-\	.
16b-\JJ	.	.	.	.	.	.	.
!	!	!LO:SIC:v:l:s=Cae-	!	!	!	!	!
8.aa-\L	.	4.BB-/	Ce-	4.dd\	-ni	4dd\	.
16gg\K	.	.	.	.	.	.	.
8ff\J	.	.	.	.	.	8dd\	.
!	!	!LO:LB:g=original	!	!LO:LB:g=original	!	!	!
=17	=17	=17	=17	=17	=17	=17	=17
16ee-\LL	.	4.E-\	-li	4.ee-\	Sunt	4ee-\	.
16b-\	.	.	.	.	.	.	.
16an\	.	.	.	.	.	.	.
16b-\	.	.	.	.	.	.	.
16cc\	.	.	.	.	.	8ee-\	.
16b-\JJ	.	.	.	.	.	.	.
!	!	!	!	!LO:SIC:v:l:s=Cae-	!	!	!
8ff\L	.	4.BB-/	et	4.dd\	Ce-	4dd\	.
8ee-\	.	.	.	.	.	.	.
8dd\J	.	.	.	.	.	8dd\	.
=18	=18	=18	=18	=18	=18	=18	=18
*	*	*2\right	*	*2\right	*	*	*
8ee-'\L	.	2.E-\	ter-	2.ee-\	-li	4ee-\	.
8b-'\	.	.	.	.	.	.	.
8g'\J	.	.	.	.	.	8r	.
8e-'/L	.	.	.	.	.	4ee-\	.
8b-'/	.	.	.	.	.	.	.
8g'/J	.	.	.	.	.	8r	.
=19	=19	=19	=19	=19	=19	=19	=19
*	*	*	*	*	*	*tremolo	*
!	!	!	!	!LO:SIC:v:l:s=Cae-	!	!	!
8G/L 8e-	.	4.E-\	.	4.ee-\	Ce-	8ee-\L	.
8G/ 8e-	.	.	.	.	.	8ee-\	.
8G/J 8e-	.	.	.	.	.	8ee-\J	.
*	*	*	*	*	*	*Xtremolo	*
4G/ 4e-	.	8E-\	-ra	8ee-\	-li	4ee-\	.
.	.	4r	.	4r	.	.	.
8r	.	.	.	.	.	8r	.
!LO:LB:g=original	!	!LO:LB:g=original	!	!	!	!LO:LB:g=original	!
==	==	==	==	==	==	==	==
*-	*-	*-	*-	*-	*-	*-	*-
!!!system-decoration: (s1)[(s2,s3)](s4)
!!!RDF**kern: < = below
!!!RDF**kern: > = above
!!!RDF**kern: | = vertical stroke
!!!ENC: Anastazja Marusiak
!!!END: 2020-08-10
!!!ENC: Marta Chmielewska
!!!END: 2021-11-19
